X:1
T:Gathering Home
T:William Augustine Ogden
T:Gathering Home
T:Public Domain
T:Public Domain
T:Public Domain
C:William Augustine Ogden
Z:Public Domain
%%score ( 1 2 ) ( 3 4 )
L:1/8
M:6/8
K:Ab
V:1 treble 
V:2 treble 
V:3 bass 
V:4 bass 
V:1
 E | (EF)G AGA | F2 B B3 | [DE]2 [DG] [DG]3 | [CE]2 [EA] [EA]2 E/E/ | EFG (AG)A | F2 d d3 | %7
w: 1.~They’re|gath- * ’ring home- ward from|ev- ’ry land,|One by one!|one by one! As their|wea- ry feet touch * the|shin- ing strand,|
w: 2.~Be-|fore * they rest they pass|thro’ the strife,|One by one!|one by one! Thro’ the|wa- ters of death * they|en- ter life,|
w: 3.~We|too * must come to the|riv- er- side,|One by one!|one by one! We are|near- er its waters * each|ev- en- tide,|
w: 4.~Oh,|Jesus, * Re- deem- er, we|look to Thee,|One by one!|one by one! W- e|lift up our voic- * es|tremb- ling- ly,|
 [Ge]3 [Ac]2 [EB] | [EA]3- [EA]2 ([Ec]/[Ec]/) | [Fd][Fd][Fd] [Fd][Ec][DB] | %10
w: Yes, one by|one! * They *|rest with the Sav- ior, they|
w: Yes, one by|one! * To *|some are the floods of the|
w: Yes, one by|one! * We *|can hear the noise of the|
w: Yes, one by|one! * The *|waves of the ri- ver are|
 [Ec]2 [Ec] [Ec]2 ([CA]/[CA]/) | [DB][DB][DB] [DB][CA][DB] | [Ec]2 [DB] [CA]2 [Ec] | %13
w: wait their crown, Their *|tra- vel- stained gar- ments are|all laid down; They|
w: riv- er still, As *|they ford on their way to|the heaven- ly hill;|
w: dash- ing stream, Oft *|now and a- gain, thro’ our|life’s deep dream; Some-|
w: dark and cold, But *|we know the place where our|feet shall hold; O|
 [Fd][Fd][Fd] [Fd][Ec][DB] | [Ec][Ec][Ec] [Ec]2 ([CA]/[CA]/) | [DB][DB][DB] [DB][CA][DB] | %16
w: wait the white rai- ment the|Lord shall pre- pare For *|all who the glo- ry with|
w: The waves to o- thers run|fierce- ly and wild, Yet *|they reach the home of the|
w: times the dark floods all the|banks o- ver- flow, Some- *|ti- mes in rip- ples and|
w: Thou who didst pass thro’ the|deep- est mid- night, Now *|guide us, and send us the|
 [Ec]2 [DB] [CA]3 ||"^Refrain" [CE]2 [EA] [EA]3 | [DF]2 [FB] [FB]3 | [EG][EG][EG] (GA)[EB] | %20
w: Him shall share.||||
w: un- de- filed.|Gath- ’ring home!|gath- ’ring home!|Ford- ing the riv- * er|
w: small waves go.||||
w: staff and light.||||
 [Ac]2 [EA] [CE]3 | [CE]2 [EA] [EA]3 | [DF]2 [FB] [FB]3 | [Ge]3 [Ac]2 [EB] | [EA]3- [EA]2 |] %25
w: |||||
w: by one! Gath-|’ring home, gath-|’ring home, Yes,|one by one!||
w: |||||
w: |||||
V:2
 x | x6 | x6 | x6 | x6 | x6 | x6 | x6 | x6 | x6 | x6 | x6 | x6 | x6 | x6 | x6 | x6 || x6 | x6 | %19
w: |||||||||||||||||||
w: |||||||||||||||||||
 x3 E2 x | x6 | x6 | x6 | x6 | x5 |] %25
w: ||||||
w: one||||||
V:3
 z | z6 | z6 | [E,G,]2 [E,B,] [E,B,]3 | [A,,A,]2 [A,,C] [A,,C]2 z | z6 | z6 | %7
 [E,B,]3 [E,E]2 [E,D] | [A,,C]3- [A,,C]2 (A,/A,/) | [D,A,][D,A,][D,A,] [D,A,][D,A,][D,A,] | %10
 [A,,A,]2 [A,,A,] [A,,A,]2 ([A,,E,]/[A,,E,]/) | [E,G,][E,G,][E,G,] [E,G,][E,A,][E,G,] | %12
 [A,,A,]2 [A,,E,] [A,,E,]2 A, | [D,A,][D,A,][D,A,] [D,A,][D,A,][D,A,] | %14
 [A,,A,][A,,A,][A,,A,] [A,,A,]2 ([A,,E,]/[A,,E,]/) | [E,G,][E,G,][E,G,] [E,G,][E,A,][E,G,] | %16
 [A,,A,]2 [A,,E,] [A,,E,]3 || [A,,A,]2 [A,,C] [A,,C]3 | [D,A,]2 [D,D] [D,D]3 | %19
 [E,B,][E,B,][E,B,] (B,C)[E,D] | [A,,E]2 [A,,C] [A,,A,]3 | [A,,A,]2 [A,,C] [A,,C]3 | %22
 [D,A,]2 [D,D] [D,D]3 | [E,B,]3 [E,E]2 [E,D] | [A,,C]3- [A,,C]2 |] %25
V:4
 x | x6 | x6 | x6 | x6 | x6 | x6 | x6 | x5 A,/A,/ | x6 | x6 | x6 | x5 A, | x6 | x6 | x6 | x6 || %17
 x6 | x6 | x3 E,2 x | x6 | x6 | x6 | x6 | x5 |] %25

